X:989
T:Bag of Spuds, The
S:Michael Coleman
D:Gael-Linn CEFCD 161
N:recorded in 1921 as the 2nd tune on the track titled \"The Shaskeen\". His 1st time through transcribed here by Alan Ng
Z: id:ng-reels-27 transcribed by Alan Ng Oct. 1, 1998 agng@students.wisc.edu
R:reel
M:C|
K:ADor
A2eA (3cBAeA|ABcd ecdB|G2dG BGdG|G~B3 GBdB|\
~A2eA (3cBAeA|ABcd e^c(3ddB|ABcd ed~c2|dBgB BdgB||\
A2eA (3cBAeA|ABcd gedB|G2dG BGdG|G~B3 ~B3 d|\
~A2eA (3cBAeA|ABcd (3edc(3dcB|ABcd ec~c2|dBGB cAA2||\
abgb ageg|agab agef|gedc BGBd|~g3a bgea|\
~a2ea ageg|~a2bg age^c|(3d^ccde (3ggfge|dBGB cAA2||\
abgb ageg|agab agef|gedc BGBd|~g3a bged|\
(3eddeg ~a3b|(3c'ba(3bag aged|(3d^ccde (3ggfge|dBGB BdgB|]**
